X:954
T:Añada (CT 291)
R:Añada
C:Tradicional
S:Música Tradicional Asturiana, (C) Tello & Tito. Asturies, 2001.
S:http://pagina.de/MusTradAst <telloytito@asturies.org>
N:Canción de cuna (Añada), dictada por Ramón Colao, de cincuenta años, de Murias, ayuntamiento de Quirós.
O:Murias (Quirós)
A:Asturies
Z:Cancioneru de Torner 294
M:2/4
L:1/8
Q:1/4=80
W:Les tus cabres, Xuan,
W:al monte arriba van
W:y la to cabra negra, morena,
W:va la delantera.
W:
W:Cencerrín de planta,
W:collarín de seda,
W:y en el lado derecho, morena,
W:llevaba una letra,
W:
W:que no hai escribano
W:que sepa leerla
W:si no era uno, morena,
W:que era Xuan de Quela.
K:G
|:cc cA|B3G|cc cA|B4|cc (3ccc|
(3eee GG|AA GF|G2 G2:|


